X: 46
T: Young Jane
O: England
R: waltz
M: 3/4
Z: 2005 John Chambers <jc@trillian.mit.edu>
R: waltz
K: G
(3DEF \
| "G"G3 A B2 | "D7"A2 B2 d2 | "C"e6  | "D7"d4 BA \
| "G"G3 A B2 | "Am"A4    G2 | "C"E6  | "D7"D4 EF |
| "G"G3 A B2 | "D7"A2 B2 d2 | "C"e6  | "G"d4 e2 \
|    G3 A B2 | "D7"A4    G2 | "G"G6- | G4 |]
Bc \
| "G"d3 B d2 |     g3  f g2 | "C"e6  | "Am"A4 B2 \
|"D7"c3 d e2 |  "G"d2 B2 A2 | "C"G6  | "D7"F4 (3DEF |
| "G"G3 A B2 | "D7"A2 B2 d2 | "C"e6  | "G"d4 g2 \
|    G3 A B2 | "D7"A4    G2 | "G"G6- | G4 |]
